svg/face_man_outline.svg

<svg xmlns="http://www.w3.org/2000/svg" viewBox="0 0 24 24"><path d="M10.25 13A1.25 1.25 0 0 1 9 14.25 1.25 1.25 0 0 1 7.75 13 1.25 1.25 0 0 1 9 11.75 1.25 1.25 0 0 1 10.25 13M15 11.75A1.25 1.25 0 0 0 13.75 13 1.25 1.25 0 0 0 15 14.25 1.25 1.25 0 0 0 16.25 13 1.25 1.25 0 0 0 15 11.75m7 .25a10 10 0 0 1-10 10A10 10 0 0 1 2 12 10 10 0 0 1 12 2a10 10 0 0 1 10 10M10.66 4.12C12.06 6.44 14.6 8 17.5 8c.46 0 .91-.05 1.34-.12C17.44 5.56 14.9 4 12 4c-.46 0-.91.05-1.34.12M4.42 9.47a8.05 8.05 0 0 0 3.66-4.44 8.05 8.05 0 0 0-3.66 4.44M20 12c0-.78-.12-1.53-.33-2.24-.7.15-1.42.24-2.17.24a10 10 0 0 1-7.76-3.69A10.02 10.02 0 0 1 4 11.86V12c0 4.41 3.59 8 8 8s8-3.59 8-8"/></svg>

<svg xmlns="http://www.w3.org/2000/svg" id="mdi-face-man-outline" viewBox="0 0 24 24"><path d="M10.25,13A1.25,1.25 0 0,1 9,14.25A1.25,1.25 0 0,1 7.75,13A1.25,1.25 0 0,1 9,11.75A1.25,1.25 0 0,1 10.25,13M15,11.75A1.25,1.25 0 0,0 13.75,13A1.25,1.25 0 0,0 15,14.25A1.25,1.25 0 0,0 16.25,13A1.25,1.25 0 0,0 15,11.75M22,12A10,10 0 0,1 12,22A10,10 0 0,1 2,12A10,10 0 0,1 12,2A10,10 0 0,1 22,12M10.66,4.12C12.06,6.44 14.6,8 17.5,8C17.96,8 18.41,7.95 18.84,7.88C17.44,5.56 14.9,4 12,4C11.54,4 11.09,4.05 10.66,4.12M4.42,9.47C6.13,8.5 7.45,6.92 8.08,5.03C6.37,6 5.05,7.58 4.42,9.47M20,12C20,11.22 19.88,10.47 19.67,9.76C18.97,9.91 18.25,10 17.5,10C14.37,10 11.58,8.56 9.74,6.31C8.69,8.87 6.6,10.88 4,11.86C4,11.9 4,11.95 4,12C4,16.41 7.59,20 12,20C16.41,20 20,16.41 20,12Z" /></svg>
